src/vectors/trial-frame.svg

<svg width="563" height="291" viewBox="0 0 563 291" fill="none" xmlns="http://www.w3.org/2000/svg">
    <path d="M16.0967 290.619L16.2908 289.638C17.4897 289.875 18.7298 290 20 290H23.9617V291H20C18.6643 291 17.3591 290.869 16.0967 290.619ZM539.038 291V290H543C544.27 290 545.51 289.875 546.709 289.638L546.903 290.619C545.641 290.869 544.336 291 543 291H539.038ZM554.112 287.631L553.556 286.8C555.628 285.413 557.413 283.628 558.8 281.556L559.631 282.112C558.171 284.293 556.293 286.171 554.112 287.631ZM563 23.9219H562V20C562 18.7298 561.875 17.4897 561.638 16.2908L562.619 16.0968C562.869 17.3592 563 18.6643 563 20V23.9219ZM559.631 8.88769L558.8 9.44401C557.413 7.3716 555.628 5.5871 553.556 4.19966L554.112 3.3687C556.293 4.82886 558.171 6.70666 559.631 8.88769ZM23.9621 0H20C18.6643 0 17.3592 0.130939 16.0968 0.380681L16.2908 1.36167C17.4897 1.1245 18.7298 1 20 1H23.9621V0ZM8.88769 3.36869L9.44401 4.19966C7.3716 5.5871 5.5871 7.3716 4.19966 9.444L3.36869 8.88768C4.82885 6.70666 6.70666 4.82885 8.88769 3.36869ZM0 267.078H1V271C1 272.27 1.1245 273.51 1.36167 274.709L0.380682 274.903C0.130939 273.641 0 272.336 0 271V267.078ZM3.36868 282.112L4.19965 281.556C5.58709 283.628 7.37159 285.413 9.44399 286.8L8.88767 287.631C6.70665 286.171 4.82884 284.293 3.36868 282.112ZM0 259.234H1V251.391H0V259.234ZM0 243.547H1V235.703H0V243.547ZM0 227.859H1V220.016H0V227.859ZM0 212.172H1V204.328H0V212.172ZM0 196.484H1V188.641H0V196.484ZM0 180.797H1V172.953H0V180.797ZM0 165.109H1V157.266H0V165.109ZM0 149.422H1V141.578H0V149.422ZM0 133.734H1V125.891H0V133.734ZM0 118.047H1V110.203H0V118.047ZM0 102.359H1V94.5156H0V102.359ZM0 86.6719H1V78.8281H0V86.6719ZM0 70.9844H1V63.1406H0V70.9844ZM0 55.2969H1V47.4531H0V55.2969ZM0 39.6094H1V31.7656H0V39.6094ZM0 23.9219H1V20C1 18.7298 1.1245 17.4897 1.36167 16.2908L0.380681 16.0968C0.130939 17.3592 0 18.6643 0 20V23.9219ZM31.8864 0V1H39.8106V0H31.8864ZM47.7348 0V1H55.6591V0H47.7348ZM63.5833 0V1H71.5076V0H63.5833ZM79.4318 0V1H87.3561V0H79.4318ZM95.2803 0V1H103.205V0H95.2803ZM111.129 0V1H119.053V0H111.129ZM126.977 0V1H134.902V0H126.977ZM142.826 0V1H150.75V0H142.826ZM158.674 0V1H166.598V0H158.674ZM174.523 0V1H182.447V0H174.523ZM190.371 0V1H198.295V0H190.371ZM206.22 0V1H214.144V0H206.22ZM222.068 0V1H229.992V0H222.068ZM237.917 0V1H245.841V0H237.917ZM253.765 0V1H261.689V0H253.765ZM269.614 0V1H277.538V0H269.614ZM285.462 0V1H293.386V0H285.462ZM301.311 0V1H309.235V0H301.311ZM317.159 0V1H325.083V0H317.159ZM333.008 0V1H340.932V0H333.008ZM348.856 0V1H356.78V0H348.856ZM364.705 0V1H372.629V0H364.705ZM380.553 0V1H388.477V0H380.553ZM396.402 0V1H404.326V0H396.402ZM412.25 0V1H420.174V0H412.25ZM428.099 0V1H436.023V0H428.099ZM443.947 0V1H451.871V0H443.947ZM459.796 0V1H467.72V0H459.796ZM475.644 0V1H483.569V0H475.644ZM491.493 0V1H499.417V0H491.493ZM507.341 0V1H515.266V0H507.341ZM523.19 0V1H531.114V0H523.19ZM539.038 0V1H543C544.27 1 545.51 1.1245 546.709 1.36167L546.903 0.380684C545.641 0.13094 544.336 0 543 0H539.038ZM563 31.7656H562V39.6094H563V31.7656ZM563 47.4531H562V55.2969H563V47.4531ZM563 63.1406H562V70.9844H563V63.1406ZM563 78.8281H562V86.6719H563V78.8281ZM563 94.5156H562V102.359H563V94.5156ZM563 110.203H562V118.047H563V110.203ZM563 125.891H562V133.734H563V125.891ZM563 141.578H562V149.422H563V141.578ZM563 157.266H562V165.109H563V157.266ZM563 172.953H562V180.797H563V172.953ZM563 188.641H562V196.484H563V188.641ZM563 204.328H562V212.172H563V204.328ZM563 220.016H562V227.859H563V220.016ZM563 235.703H562V243.547H563V235.703ZM563 251.391H562V259.234H563V251.391ZM563 267.078H562V271C562 272.27 561.875 273.51 561.638 274.709L562.619 274.903C562.869 273.641 563 272.336 563 271V267.078ZM531.114 291V290H523.189V291H531.114ZM515.265 291V290H507.341V291H515.265ZM499.417 291V290H491.492V291H499.417ZM483.568 291V290H475.644V291H483.568ZM467.72 291V290H459.795V291H467.72ZM451.871 291V290H443.947V291H451.871ZM436.023 291V290H428.098V291H436.023ZM420.174 291V290H412.25V291H420.174ZM404.326 291V290H396.402V291H404.326ZM388.477 291V290H380.553V291H388.477ZM372.629 291V290H364.705V291H372.629ZM356.78 291V290H348.856V291H356.78ZM340.932 291V290H333.008V291H340.932ZM325.083 291V290H317.159V291H325.083ZM309.235 291V290H301.311V291H309.235ZM293.386 291V290H285.462V291H293.386ZM277.538 291V290H269.614V291H277.538ZM261.689 291V290H253.765V291H261.689ZM245.841 291V290H237.917V291H245.841ZM229.992 291V290H222.068V291H229.992ZM214.144 291V290H206.22V291H214.144ZM198.295 291V290H190.371V291H198.295ZM182.447 291V290H174.523V291H182.447ZM166.598 291V290H158.674V291H166.598ZM150.75 291V290H142.826V291H150.75ZM134.901 291V290H126.977V291H134.901ZM119.053 291V290H111.129V291H119.053ZM103.204 291V290H95.28V291H103.204ZM87.3558 291V290H79.4315V291H87.3558ZM71.5073 291V290H63.583V291H71.5073ZM55.6587 291V290H47.7345V291H55.6587ZM39.8102 291V290H31.886V291H39.8102Z" fill="white"/>
</svg>

<svg xmlns="http://www.w3.org/2000/svg" width="563" height="291" fill="none" viewBox="0 0 563 291">
    <path fill="#fff" d="m16.097 290.619.194-.981c1.199.237 2.439.362 3.709.362h3.962v1H20c-1.336 0-2.64-.131-3.903-.381Zm522.941.381v-1H543c1.27 0 2.51-.125 3.709-.362l.194.981A20.07 20.07 0 0 1 543 291h-3.962Zm15.074-3.369-.556-.831a19.106 19.106 0 0 0 5.244-5.244l.831.556a20.106 20.106 0 0 1-5.519 5.519ZM563 23.921h-1V20c0-1.27-.125-2.51-.362-3.71l.981-.193c.25 1.262.381 2.567.381 3.903v3.922Zm-3.369-15.033-.831.556a19.108 19.108 0 0 0-5.244-5.244l.556-.831a20.108 20.108 0 0 1 5.519 5.519ZM23.962 0H20c-1.336 0-2.64.13-3.903.38l.194.982A19.098 19.098 0 0 1 20 1h3.962V0ZM8.888 3.369l.556.83A19.11 19.11 0 0 0 4.2 9.445l-.831-.556a20.11 20.11 0 0 1 5.519-5.52ZM0 267.078h1V271c0 1.27.125 2.51.362 3.709l-.981.194A20.09 20.09 0 0 1 0 271v-3.922Zm3.369 15.034.83-.556a19.108 19.108 0 0 0 5.245 5.244l-.556.831a20.108 20.108 0 0 1-5.52-5.519ZM0 259.234h1v-7.843H0v7.843Zm0-15.687h1v-7.844H0v7.844Zm0-15.688h1v-7.843H0v7.843Zm0-15.687h1v-7.844H0v7.844Zm0-15.688h1v-7.843H0v7.843Zm0-15.687h1v-7.844H0v7.844Zm0-15.688h1v-7.843H0v7.843Zm0-15.687h1v-7.844H0v7.844Zm0-15.688h1v-7.843H0v7.843Zm0-15.687h1v-7.844H0v7.844Zm0-15.688h1v-7.843H0v7.843Zm0-15.687h1v-7.844H0v7.844Zm0-15.688h1v-7.843H0v7.843Zm0-15.687h1v-7.844H0v7.844Zm0-15.688h1v-7.843H0v7.843Zm0-15.687h1V20c0-1.27.125-2.51.362-3.71l-.981-.193A20.097 20.097 0 0 0 0 20v3.922ZM31.886 0v1h7.925V0h-7.925Zm15.849 0v1h7.924V0h-7.924Zm15.848 0v1h7.925V0h-7.925Zm15.849 0v1h7.924V0h-7.924ZM95.28 0v1h7.925V0H95.28Zm15.849 0v1h7.924V0h-7.924Zm15.848 0v1h7.925V0h-7.925Zm15.849 0v1h7.924V0h-7.924Zm15.848 0v1h7.924V0h-7.924Zm15.849 0v1h7.924V0h-7.924Zm15.848 0v1h7.924V0h-7.924Zm15.849 0v1h7.924V0h-7.924Zm15.848 0v1h7.924V0h-7.924Zm15.849 0v1h7.924V0h-7.924Zm15.848 0v1h7.924V0h-7.924Zm15.849 0v1h7.924V0h-7.924Zm15.848 0v1h7.924V0h-7.924Zm15.849 0v1h7.924V0h-7.924Zm15.848 0v1h7.924V0h-7.924Zm15.849 0v1h7.924V0h-7.924Zm15.848 0v1h7.924V0h-7.924Zm15.849 0v1h7.924V0h-7.924Zm15.848 0v1h7.924V0h-7.924Zm15.849 0v1h7.924V0h-7.924Zm15.848 0v1h7.924V0h-7.924Zm15.849 0v1h7.924V0h-7.924Zm15.848 0v1h7.924V0h-7.924Zm15.849 0v1h7.924V0h-7.924Zm15.848 0v1h7.925V0h-7.925Zm15.849 0v1h7.924V0h-7.924Zm15.848 0v1h7.925V0h-7.925Zm15.849 0v1h7.924V0h-7.924Zm15.848 0v1H543c1.27 0 2.51.125 3.709.362l.194-.981A20.09 20.09 0 0 0 543 0h-3.962ZM563 31.766h-1v7.843h1v-7.843Zm0 15.687h-1v7.844h1v-7.844Zm0 15.688h-1v7.843h1v-7.843Zm0 15.687h-1v7.844h1v-7.844Zm0 15.688h-1v7.843h1v-7.843Zm0 15.687h-1v7.844h1v-7.844Zm0 15.688h-1v7.843h1v-7.843Zm0 15.687h-1v7.844h1v-7.844Zm0 15.688h-1v7.843h1v-7.843Zm0 15.687h-1v7.844h1v-7.844Zm0 15.688h-1v7.843h1v-7.843Zm0 15.687h-1v7.844h1v-7.844Zm0 15.688h-1v7.843h1v-7.843Zm0 15.687h-1v7.844h1v-7.844Zm0 15.688h-1v7.843h1v-7.843Zm0 15.687h-1V271c0 1.27-.125 2.51-.362 3.709l.981.194A20.07 20.07 0 0 0 563 271v-3.922ZM531.114 291v-1h-7.925v1h7.925Zm-15.849 0v-1h-7.924v1h7.924Zm-15.848 0v-1h-7.925v1h7.925Zm-15.849 0v-1h-7.924v1h7.924Zm-15.848 0v-1h-7.925v1h7.925Zm-15.849 0v-1h-7.924v1h7.924Zm-15.848 0v-1h-7.925v1h7.925Zm-15.849 0v-1h-7.924v1h7.924Zm-15.848 0v-1h-7.924v1h7.924Zm-15.849 0v-1h-7.924v1h7.924Zm-15.848 0v-1h-7.924v1h7.924Zm-15.849 0v-1h-7.924v1h7.924Zm-15.848 0v-1h-7.924v1h7.924Zm-15.849 0v-1h-7.924v1h7.924Zm-15.848 0v-1h-7.924v1h7.924Zm-15.849 0v-1h-7.924v1h7.924Zm-15.848 0v-1h-7.924v1h7.924Zm-15.849 0v-1h-7.924v1h7.924Zm-15.848 0v-1h-7.924v1h7.924Zm-15.849 0v-1h-7.924v1h7.924Zm-15.848 0v-1h-7.924v1h7.924Zm-15.849 0v-1h-7.924v1h7.924Zm-15.848 0v-1h-7.924v1h7.924Zm-15.849 0v-1h-7.924v1h7.924Zm-15.848 0v-1h-7.924v1h7.924Zm-15.849 0v-1h-7.924v1h7.924Zm-15.848 0v-1h-7.924v1h7.924Zm-15.849 0v-1H95.28v1h7.924Zm-15.848 0v-1h-7.924v1h7.924Zm-15.849 0v-1h-7.924v1h7.924Zm-15.848 0v-1h-7.925v1h7.925Zm-15.849 0v-1h-7.924v1h7.924Z"/>
</svg>
